build/svg/cmd/32/togglegridhorizontal.svg

<svg xmlns="http://www.w3.org/2000/svg" viewBox="0 0 32 32"><path d="M7 4v19H4v2h3v3h2v-3h19v-2H9V4H7z" fill="#6d6d6d"/><path d="M4 13v2h24v-2zM4 8v2h24V8zM4 18v2h24v-2z" fill="#1463a5"/></svg>

<?xml version="1.0" encoding="UTF-8" standalone="no"?>
<svg
   xmlns:dc="http://purl.org/dc/elements/1.1/"
   xmlns:cc="http://creativecommons.org/ns#"
   xmlns:rdf="http://www.w3.org/1999/02/22-rdf-syntax-ns#"
   xmlns:svg="http://www.w3.org/2000/svg"
   xmlns="http://www.w3.org/2000/svg"
   xmlns:sodipodi="http://sodipodi.sourceforge.net/DTD/sodipodi-0.dtd"
   xmlns:inkscape="http://www.inkscape.org/namespaces/inkscape"
   viewBox="0 0 32 32"
   version="1.1"
   id="svg6"
   sodipodi:docname="togglegridhorizontal.svg"
   inkscape:export-filename="/home/jupiter007/Libreoffice yaru theme fullcolor/build/cmd/32/togglegridhorizontal.png"
   inkscape:export-xdpi="96"
   inkscape:export-ydpi="96"
   inkscape:version="0.92.5 (2060ec1f9f, 2020-04-08)">
  <metadata
     id="metadata12">
    <rdf:RDF>
      <cc:Work
         rdf:about="">
        <dc:format>image/svg+xml</dc:format>
        <dc:type
           rdf:resource="http://purl.org/dc/dcmitype/StillImage" />
      </cc:Work>
    </rdf:RDF>
  </metadata>
  <defs
     id="defs10" />
  <sodipodi:namedview
     pagecolor="#ffffff"
     bordercolor="#666666"
     borderopacity="1"
     objecttolerance="10"
     gridtolerance="10"
     guidetolerance="10"
     inkscape:pageopacity="0"
     inkscape:pageshadow="2"
     inkscape:window-width="1920"
     inkscape:window-height="1011"
     id="namedview8"
     showgrid="true"
     inkscape:zoom="14.75"
     inkscape:cx="11.898246"
     inkscape:cy="13.981525"
     inkscape:window-x="0"
     inkscape:window-y="32"
     inkscape:window-maximized="1"
     inkscape:current-layer="svg6">
    <inkscape:grid
       type="xygrid"
       id="grid822" />
  </sodipodi:namedview>
  <path
     style="opacity:1;fill:#6d6d6d;fill-opacity:1;fill-rule:nonzero;stroke:none;stroke-width:3.0237155;stroke-linecap:round;stroke-linejoin:round;stroke-miterlimit:4;stroke-dasharray:none;stroke-opacity:1"
     d="M 7 4 L 7 23 L 4 23 L 4 25 L 7 25 L 7 28 L 9 28 L 9 25 L 28 25 L 28 23 L 9 23 L 9 4 L 7 4 z "
     id="rect831" />
  <path
     sodipodi:nodetypes="ccccc"
     style="fill:#1463a5;fill-opacity:1"
     inkscape:connector-curvature="0"
     id="path833"
     d="m 4,13 v 2 h 24 v -2 z" />
  <path
     d="m 4,8 v 2 H 28 V 8 Z"
     id="path835"
     inkscape:connector-curvature="0"
     style="fill:#1463a5;fill-opacity:1"
     sodipodi:nodetypes="ccccc" />
  <path
     d="m 4,18 v 2 h 24 v -2 z"
     id="path2"
     inkscape:connector-curvature="0"
     style="fill:#1463a5;fill-opacity:1"
     sodipodi:nodetypes="ccccc" />
</svg>
